static/assets/images/exchanges/wombat.svg

<svg width="285" height="256" viewBox="0 0 285 256" fill="none" xmlns="http://www.w3.org/2000/svg">
<path d="M85.1857 20.7704L42.7923 20.8555C42.7399 20.8555 42.6897 20.8763 42.6526 20.9134C42.6156 20.9504 42.5948 21.0006 42.5948 21.053V85.0404C42.5948 85.0753 42.5809 85.1088 42.5562 85.1335C42.5315 85.1581 42.4981 85.172 42.4631 85.172L21.491 85.1798C21.4407 85.1798 21.3924 85.2002 21.3568 85.2365C21.3213 85.2728 21.3013 85.322 21.3013 85.3733L21.3051 199.043L21.2974 212.915C21.2974 213.045 21.3496 213.17 21.4426 213.262C21.5355 213.354 21.6616 213.406 21.793 213.406L63.8767 213.387L64.0045 220.452L63.8922 234.138C63.8896 234.517 64.0781 234.707 64.4575 234.707L219.925 234.711C220.04 234.711 220.15 234.665 220.231 234.584C220.313 234.503 220.358 234.392 220.358 234.277L220.362 220.332L220.378 219.639L220.382 214.01C220.382 213.85 220.446 213.696 220.56 213.583C220.674 213.47 220.828 213.406 220.99 213.406H262.531C262.645 213.406 262.754 213.361 262.835 213.28C262.916 213.2 262.961 213.09 262.961 212.977L262.973 199.039C262.975 161.135 262.975 123.227 262.973 85.3153C262.934 85.2585 262.956 85.2107 263.038 85.172H284.138C284.173 85.172 284.207 85.1859 284.231 85.2106C284.256 85.2353 284.27 85.2687 284.27 85.3037V213.205C284.27 213.247 284.254 213.287 284.225 213.317C284.196 213.347 284.156 213.364 284.115 213.364H263.143C263.029 213.364 262.973 213.42 262.973 213.534L262.976 234.463C262.976 234.626 262.895 234.707 262.732 234.707H220.467C220.443 234.707 220.421 234.716 220.404 234.733C220.387 234.75 220.378 234.772 220.378 234.796L220.382 255.923C220.382 255.943 220.373 255.963 220.359 255.977C220.344 255.992 220.325 256 220.304 256H64.109C63.9645 256 63.8922 255.926 63.8922 255.779V234.939C63.8922 234.784 63.8148 234.707 63.6599 234.707H21.4678C21.4226 234.707 21.3793 234.689 21.3473 234.657C21.3153 234.625 21.2974 234.582 21.2974 234.537V213.557C21.2974 213.428 21.2329 213.364 21.1038 213.364H0.193611C0.0645359 213.364 0 213.299 0 213.17V85.292C0 85.2592 0.0126444 85.2277 0.0351562 85.2044C0.0576681 85.1812 0.0882027 85.1681 0.120039 85.1681H21.0806C21.1381 85.1681 21.1932 85.1453 21.2339 85.1047C21.2746 85.064 21.2974 85.0089 21.2974 84.9513V0.170341C21.2974 0.125163 21.3149 0.0818403 21.3462 0.0498946C21.3774 0.0179488 21.4197 0 21.4639 0H84.9844C85.0357 0 85.085 0.0208049 85.1213 0.0578329C85.1576 0.0948608 85.178 0.14508 85.178 0.197445L85.1857 20.7704Z" fill="#4A402E"/>
<path d="M262.973 85.0404C262.952 85.0765 262.929 85.1101 262.903 85.1411C262.88 85.1643 262.852 85.1759 262.822 85.1759H241.822C241.783 85.1759 241.746 85.16 241.718 85.1317C241.691 85.1034 241.675 85.065 241.675 85.0249L241.679 20.991C241.679 20.9551 241.664 20.9206 241.638 20.8952C241.612 20.8698 241.577 20.8555 241.54 20.8555H199.301C199.159 20.8555 199.088 20.9278 199.088 21.0723V41.5911C199.088 41.6711 199.048 41.7111 198.968 41.7111H85.3755C85.3511 41.7111 85.3269 41.7063 85.3043 41.6969C85.2818 41.6876 85.2613 41.6739 85.244 41.6566C85.2268 41.6394 85.2131 41.6189 85.2037 41.5963C85.1944 41.5738 85.1896 41.5496 85.1896 41.5252L85.2709 20.8555H198.929C199.03 20.8555 199.08 20.8052 199.08 20.7045V0.181958C199.08 0.1337 199.099 0.0874154 199.134 0.0532916C199.168 0.0191677 199.214 0 199.262 0H262.876C262.94 0 262.973 0.0322633 262.973 0.0967875V85.0404Z" fill="#4A402E"/>
<path d="M85.1857 20.7704C85.0334 20.8065 85.0618 20.8349 85.2709 20.8555L85.1896 41.5252C85.1896 41.5496 85.1944 41.5738 85.2037 41.5963C85.2131 41.6189 85.2268 41.6394 85.244 41.6566C85.2613 41.6739 85.2818 41.6876 85.3043 41.6969C85.3269 41.7063 85.3511 41.7111 85.3755 41.7111H198.968C199.048 41.7111 199.088 41.6711 199.088 41.5911V21.0723C199.088 20.9278 199.159 20.8555 199.301 20.8555H241.54C241.577 20.8555 241.612 20.8698 241.638 20.8952C241.664 20.9206 241.679 20.9551 241.679 20.991L241.675 85.0249C241.675 85.065 241.691 85.1034 241.718 85.1317C241.746 85.16 241.783 85.1759 241.822 85.1759H262.822C262.852 85.1759 262.88 85.1643 262.903 85.1411C262.929 85.1101 262.952 85.0765 262.973 85.0404C262.965 85.1049 262.987 85.1488 263.038 85.172C262.956 85.2107 262.934 85.2585 262.973 85.3153C262.975 123.227 262.975 161.135 262.973 199.039L220.521 199.043C220.503 199.043 220.486 199.047 220.469 199.053C220.453 199.06 220.438 199.07 220.425 199.083C220.413 199.095 220.403 199.11 220.396 199.127C220.389 199.143 220.386 199.161 220.386 199.179L220.378 219.639L220.362 220.332L156.513 220.332V213.639C156.513 213.578 156.536 213.52 156.578 213.477C156.621 213.434 156.678 213.41 156.737 213.41H170.673C170.713 213.41 170.75 213.395 170.778 213.367C170.805 213.339 170.821 213.302 170.821 213.263L170.817 206.275C170.817 206.097 170.905 206.008 171.08 206.008H184.981C185.092 206.008 185.148 205.952 185.148 205.841V156.531C185.148 156.51 185.14 156.49 185.125 156.476C185.111 156.461 185.091 156.453 185.071 156.453H171.034C170.886 156.453 170.813 156.526 170.813 156.67V184.545C170.813 184.658 170.757 184.715 170.646 184.715H156.71C156.566 184.715 156.493 184.644 156.493 184.502V177.967C156.493 177.82 156.42 177.746 156.273 177.746H127.978C127.849 177.746 127.784 177.811 127.784 177.94V184.521C127.784 184.65 127.72 184.715 127.591 184.715H113.651C113.599 184.715 113.55 184.694 113.514 184.658C113.477 184.622 113.457 184.573 113.457 184.521V156.647C113.457 156.518 113.393 156.453 113.263 156.453H99.2265C99.1865 156.453 99.1481 156.469 99.1197 156.496C99.0914 156.524 99.0755 156.561 99.0755 156.6V205.884C99.0755 205.967 99.1168 206.008 99.1994 206.008H113.263C113.393 206.008 113.457 206.072 113.457 206.201V213.193C113.457 213.34 113.529 213.414 113.674 213.414L127.571 213.41C127.685 213.41 127.743 213.467 127.746 213.58L127.781 220.332L64.0045 220.452L63.8767 213.387L63.8883 199.159C63.8883 199.13 63.8761 199.101 63.8543 199.08C63.8325 199.059 63.803 199.047 63.7722 199.047L21.3051 199.043L21.3013 85.3733C21.3013 85.322 21.3213 85.2728 21.3568 85.2365C21.3924 85.2002 21.4407 85.1798 21.491 85.1798L42.4631 85.172C42.4981 85.172 42.5315 85.1581 42.5562 85.1335C42.5809 85.1088 42.5948 85.0753 42.5948 85.0404V21.053C42.5948 21.0006 42.6156 20.9504 42.6526 20.9134C42.6897 20.8763 42.7399 20.8555 42.7923 20.8555L85.1857 20.7704ZM64.3336 42.7951C64.3336 42.7691 64.3387 42.7435 64.3487 42.7195C64.3586 42.6956 64.3731 42.6738 64.3915 42.6555C64.4098 42.6371 64.4316 42.6226 64.4555 42.6127C64.4795 42.6027 64.5052 42.5976 64.5311 42.5976H71.114C71.1663 42.5976 71.2166 42.5768 71.2536 42.5398C71.2906 42.5028 71.3114 42.4526 71.3114 42.4002L71.3153 28.4591C71.3153 28.4067 71.2945 28.3565 71.2575 28.3195C71.2204 28.2824 71.1702 28.2616 71.1178 28.2616L50.2038 28.2655C50.1514 28.2655 50.1012 28.2863 50.0641 28.3233C50.0271 28.3604 50.0063 28.4106 50.0063 28.4629V49.3649C50.0063 49.4173 50.0271 49.4675 50.0641 49.5045C50.1012 49.5416 50.1514 49.5624 50.2038 49.5624L64.1478 49.5662C64.2001 49.5662 64.2504 49.5454 64.2874 49.5084C64.3244 49.4714 64.3453 49.4212 64.3453 49.3688L64.3336 42.7951ZM220.227 42.5938C220.27 42.5938 220.311 42.6109 220.342 42.6414C220.372 42.6719 220.389 42.7132 220.389 42.7564L220.386 49.3998C220.386 49.4429 220.403 49.4842 220.433 49.5147C220.464 49.5452 220.505 49.5624 220.548 49.5624L234.558 49.5662C234.601 49.5662 234.642 49.5491 234.673 49.5186C234.703 49.4881 234.721 49.4468 234.721 49.4036L234.724 28.432C234.724 28.3889 234.707 28.3475 234.677 28.317C234.646 28.2865 234.605 28.2694 234.562 28.2694H213.597C213.554 28.2694 213.513 28.2865 213.482 28.317C213.452 28.3475 213.435 28.3889 213.435 28.432L213.419 42.435C213.419 42.4564 213.423 42.4775 213.432 42.4972C213.44 42.517 213.452 42.5349 213.467 42.55C213.482 42.5651 213.5 42.5771 213.52 42.5853C213.539 42.5934 213.561 42.5976 213.582 42.5976L220.227 42.5938ZM106.928 120.964C106.928 120.93 106.915 120.897 106.891 120.873C106.867 120.849 106.835 120.836 106.801 120.836H85.3174C85.2835 120.836 85.251 120.849 85.227 120.873C85.203 120.897 85.1896 120.93 85.1896 120.964V142.435C85.1896 142.469 85.203 142.501 85.227 142.525C85.251 142.549 85.2835 142.562 85.3174 142.562H106.801C106.835 142.562 106.867 142.549 106.891 142.525C106.915 142.501 106.928 142.469 106.928 142.435V120.964ZM198.964 142.566C198.997 142.566 199.029 142.553 199.052 142.53C199.075 142.507 199.088 142.475 199.088 142.442V120.96C199.088 120.927 199.075 120.895 199.052 120.872C199.029 120.849 198.997 120.836 198.964 120.836H177.473C177.44 120.836 177.409 120.849 177.386 120.872C177.362 120.895 177.349 120.927 177.349 120.96V142.439C177.349 142.471 177.362 142.503 177.386 142.526C177.409 142.549 177.44 142.562 177.473 142.562L198.964 142.566ZM127.784 142.28C127.784 142.24 127.768 142.201 127.74 142.173C127.712 142.145 127.673 142.129 127.633 142.129H113.608C113.568 142.129 113.53 142.145 113.501 142.173C113.473 142.201 113.457 142.24 113.457 142.28V156.302C113.457 156.342 113.473 156.381 113.501 156.409C113.53 156.437 113.568 156.453 113.608 156.453H127.633C127.673 156.453 127.712 156.437 127.74 156.409C127.768 156.381 127.784 156.342 127.784 156.302V142.28ZM170.821 142.268C170.821 142.231 170.806 142.196 170.78 142.17C170.754 142.144 170.718 142.129 170.681 142.129H156.625C156.588 142.129 156.553 142.144 156.526 142.17C156.5 142.196 156.486 142.231 156.486 142.268V156.314C156.486 156.351 156.5 156.386 156.526 156.412C156.553 156.439 156.588 156.453 156.625 156.453H170.681C170.718 156.453 170.754 156.439 170.78 156.412C170.806 156.386 170.821 156.351 170.821 156.314V142.268Z" fill="#B7A38E"/>
<path d="M64.3336 42.7951L64.3453 49.3688C64.3453 49.4212 64.3244 49.4714 64.2874 49.5084C64.2504 49.5454 64.2001 49.5662 64.1478 49.5662L50.2038 49.5624C50.1514 49.5624 50.1012 49.5416 50.0641 49.5045C50.0271 49.4675 50.0063 49.4173 50.0063 49.3649V28.4629C50.0063 28.4106 50.0271 28.3604 50.0641 28.3233C50.1012 28.2863 50.1514 28.2655 50.2038 28.2655L71.1178 28.2616C71.1702 28.2616 71.2204 28.2824 71.2575 28.3195C71.2945 28.3565 71.3153 28.4067 71.3153 28.4591L71.3114 42.4002C71.3114 42.4526 71.2906 42.5028 71.2536 42.5398C71.2166 42.5768 71.1663 42.5976 71.114 42.5976H64.5311C64.5052 42.5976 64.4795 42.6027 64.4555 42.6127C64.4316 42.6226 64.4098 42.6371 64.3915 42.6555C64.3731 42.6738 64.3586 42.6956 64.3487 42.7195C64.3387 42.7435 64.3336 42.7691 64.3336 42.7951Z" fill="#6A5C52"/>
<path d="M220.227 42.5938L213.582 42.5976C213.561 42.5976 213.539 42.5934 213.52 42.5853C213.5 42.5771 213.482 42.5651 213.467 42.55C213.452 42.5349 213.44 42.517 213.432 42.4972C213.423 42.4775 213.419 42.4564 213.419 42.435L213.435 28.432C213.435 28.3889 213.452 28.3475 213.482 28.317C213.513 28.2865 213.554 28.2694 213.597 28.2694H234.562C234.605 28.2694 234.646 28.2865 234.677 28.317C234.707 28.3475 234.724 28.3889 234.724 28.432L234.721 49.4036C234.721 49.4468 234.703 49.4881 234.673 49.5186C234.642 49.5491 234.601 49.5662 234.558 49.5662L220.548 49.5624C220.505 49.5624 220.464 49.5452 220.433 49.5147C220.403 49.4842 220.386 49.4429 220.386 49.3998L220.389 42.7564C220.389 42.7132 220.372 42.6719 220.342 42.6414C220.311 42.6109 220.27 42.5938 220.227 42.5938Z" fill="#6A5C52"/>
<path d="M106.801 120.836H85.3174C85.2468 120.836 85.1896 120.893 85.1896 120.964V142.435C85.1896 142.505 85.2468 142.562 85.3174 142.562H106.801C106.871 142.562 106.928 142.505 106.928 142.435V120.964C106.928 120.893 106.871 120.836 106.801 120.836Z" fill="#4A402E"/>
<path d="M198.964 142.566L177.473 142.562C177.44 142.562 177.409 142.549 177.386 142.526C177.362 142.503 177.349 142.471 177.349 142.439V120.96C177.349 120.927 177.362 120.895 177.386 120.872C177.409 120.849 177.44 120.836 177.473 120.836H198.964C198.997 120.836 199.029 120.849 199.052 120.872C199.075 120.895 199.088 120.927 199.088 120.96V142.442C199.088 142.475 199.075 142.507 199.052 142.53C199.029 142.553 198.997 142.566 198.964 142.566Z" fill="#4A402E"/>
<path d="M127.633 142.129H113.608C113.525 142.129 113.457 142.196 113.457 142.28V156.302C113.457 156.386 113.525 156.453 113.608 156.453H127.633C127.717 156.453 127.784 156.386 127.784 156.302V142.28C127.784 142.196 127.717 142.129 127.633 142.129Z" fill="#4A402E"/>
<path d="M170.681 142.129H156.625C156.548 142.129 156.486 142.191 156.486 142.268V156.314C156.486 156.391 156.548 156.453 156.625 156.453H170.681C170.758 156.453 170.821 156.391 170.821 156.314V142.268C170.821 142.191 170.758 142.129 170.681 142.129Z" fill="#4A402E"/>
<path d="M156.513 220.332L149.268 220.328C149.144 220.328 149.082 220.389 149.082 220.51V227.204C149.082 227.269 149.05 227.301 148.985 227.301H134.851C134.826 227.301 134.801 227.291 134.783 227.273C134.765 227.254 134.754 227.23 134.754 227.204V220.534C134.754 220.394 134.685 220.325 134.545 220.325L127.781 220.332L127.746 213.58C127.743 213.467 127.685 213.41 127.571 213.41L113.674 213.414C113.529 213.414 113.457 213.34 113.457 213.193V206.201C113.457 206.072 113.393 206.008 113.263 206.008H99.1994C99.1168 206.008 99.0755 205.967 99.0755 205.884V156.6C99.0755 156.561 99.0914 156.524 99.1197 156.496C99.1481 156.469 99.1865 156.453 99.2265 156.453H113.263C113.393 156.453 113.457 156.518 113.457 156.647V184.521C113.457 184.573 113.477 184.622 113.514 184.658C113.55 184.694 113.599 184.715 113.651 184.715H127.591C127.72 184.715 127.784 184.65 127.784 184.521V177.94C127.784 177.811 127.849 177.746 127.978 177.746H156.273C156.42 177.746 156.493 177.82 156.493 177.967V184.502C156.493 184.644 156.566 184.715 156.71 184.715H170.646C170.757 184.715 170.813 184.658 170.813 184.545V156.67C170.813 156.526 170.886 156.453 171.034 156.453H185.071C185.091 156.453 185.111 156.461 185.125 156.476C185.14 156.49 185.148 156.51 185.148 156.531V205.841C185.148 205.952 185.092 206.008 184.981 206.008H171.08C170.905 206.008 170.817 206.097 170.817 206.275L170.821 213.263C170.821 213.302 170.805 213.339 170.778 213.367C170.75 213.395 170.713 213.41 170.673 213.41H156.737C156.678 213.41 156.621 213.434 156.578 213.477C156.536 213.52 156.513 213.578 156.513 213.639V220.332Z" fill="#4A402E"/>
<path d="M21.3051 199.043L63.7722 199.047C63.803 199.047 63.8325 199.059 63.8543 199.08C63.8761 199.101 63.8883 199.13 63.8883 199.159L63.8767 213.387L21.793 213.406C21.6616 213.406 21.5355 213.354 21.4426 213.262C21.3496 213.17 21.2974 213.045 21.2974 212.915L21.3051 199.043Z" fill="#6A5C52"/>
<path d="M262.973 199.039L262.961 212.977C262.961 213.09 262.916 213.2 262.835 213.28C262.754 213.361 262.645 213.406 262.531 213.406H220.99C220.828 213.406 220.674 213.47 220.56 213.583C220.446 213.696 220.382 213.85 220.382 214.01L220.378 219.639L220.386 199.179C220.386 199.161 220.389 199.143 220.396 199.127C220.403 199.11 220.413 199.095 220.425 199.083C220.438 199.07 220.453 199.06 220.469 199.053C220.486 199.047 220.503 199.043 220.521 199.043L262.973 199.039Z" fill="#6A5C52"/>
<path d="M127.781 220.332L134.545 220.325C134.685 220.325 134.754 220.394 134.754 220.534V227.204C134.754 227.23 134.765 227.254 134.783 227.273C134.801 227.291 134.826 227.301 134.851 227.301H148.985C149.05 227.301 149.082 227.269 149.082 227.204V220.51C149.082 220.389 149.144 220.328 149.268 220.328L156.513 220.332L220.362 220.332L220.358 234.277C220.358 234.392 220.313 234.503 220.231 234.584C220.15 234.665 220.04 234.711 219.925 234.711L64.4575 234.707C64.0781 234.707 63.8896 234.517 63.8922 234.138L64.0045 220.452L127.781 220.332Z" fill="#6A5C52"/>
</svg>

<svg xmlns="http://www.w3.org/2000/svg" fill="none" viewBox="0 0 285 256"><path fill="#4A402E" d="m85.186 20.77-42.394.085a.197.197 0 0 0-.197.198V85.04a.13.13 0 0 1-.132.132l-20.972.008c-.05 0-.099.02-.134.056a.2.2 0 0 0-.056.137l.004 113.67-.008 13.872a.5.5 0 0 0 .496.491l42.084-.019.127 7.065-.112 13.686q-.003.569.565.569l155.468.004a.433.433 0 0 0 .433-.434l.004-13.945.016-.693.004-5.629a.61.61 0 0 1 .608-.604h41.541a.43.43 0 0 0 .43-.429l.012-13.938q.003-56.856 0-113.724-.058-.084.065-.143h21.1a.13.13 0 0 1 .093.039.13.13 0 0 1 .039.093v127.901a.16.16 0 0 1-.045.112.15.15 0 0 1-.11.047h-20.972q-.17 0-.17.17l.003 20.929q0 .244-.244.244h-42.265a.1.1 0 0 0-.063.026.1.1 0 0 0-.026.063l.004 21.127a.08.08 0 0 1-.078.077H64.109q-.216 0-.217-.221v-20.84q0-.232-.232-.232H21.468a.17.17 0 0 1-.17-.17v-20.98q0-.193-.194-.193H.194q-.194 0-.194-.194V85.292q.001-.05.035-.088a.12.12 0 0 1 .085-.036h20.96a.217.217 0 0 0 .217-.217V.171c0-.046.018-.09.05-.121a.16.16 0 0 1 .117-.05h63.52c.052 0 .101.02.137.058a.2.2 0 0 1 .057.14z"/><path fill="#4A402E" d="M262.973 85.04a1 1 0 0 1-.07.101.11.11 0 0 1-.081.035h-21a.15.15 0 0 1-.104-.044.16.16 0 0 1-.043-.107l.004-64.034a.13.13 0 0 0-.041-.096.14.14 0 0 0-.098-.04h-42.239q-.213 0-.213.217v20.52q0 .12-.12.12H85.376a.185.185 0 0 1-.186-.187l.08-20.67h113.66q.151 0 .151-.15V.181a.18.18 0 0 1 .054-.129.18.18 0 0 1 .128-.053h63.614q.096 0 .097.097z"/><path fill="#B7A38E" d="M85.186 20.77q-.229.055.085.085l-.081 20.67a.186.186 0 0 0 .186.186h113.592q.12 0 .12-.12V21.072q0-.216.213-.216h42.239a.14.14 0 0 1 .098.04c.026.025.041.06.041.095l-.004 64.034q.001.062.043.107a.15.15 0 0 0 .104.044h21q.046 0 .081-.035a1 1 0 0 0 .07-.1q-.012.096.065.131-.123.059-.065.143.003 56.868 0 113.724l-42.452.004a.2.2 0 0 0-.052.01.14.14 0 0 0-.083.126l-.008 20.46-.016.693h-63.849v-6.693a.225.225 0 0 1 .224-.229h13.936a.147.147 0 0 0 .148-.147l-.004-6.988q0-.267.263-.267h13.901q.167 0 .167-.167v-49.31a.08.08 0 0 0-.023-.055.07.07 0 0 0-.054-.023h-14.037q-.221 0-.221.217v27.875q0 .17-.167.17H156.71q-.217 0-.217-.213v-6.535q0-.22-.22-.221h-28.295q-.194 0-.194.194v6.581q0 .194-.193.194h-13.94a.194.194 0 0 1-.194-.194v-27.874q0-.194-.194-.194H99.226a.16.16 0 0 0-.106.043.15.15 0 0 0-.044.104v49.284q0 .124.123.124h14.064q.195 0 .194.193v6.992q0 .22.217.221l13.897-.004q.17 0 .175.17l.035 6.752-63.777.12-.127-7.065.011-14.228a.1.1 0 0 0-.034-.079.12.12 0 0 0-.082-.033l-42.467-.004-.004-113.67c0-.051.02-.1.056-.136a.2.2 0 0 1 .134-.057l20.972-.008a.13.13 0 0 0 .132-.132V21.053a.197.197 0 0 1 .197-.198zM64.334 42.795a.2.2 0 0 1 .121-.182.2.2 0 0 1 .076-.015h6.583a.2.2 0 0 0 .197-.198l.004-13.94a.197.197 0 0 0-.197-.198l-20.914.003a.2.2 0 0 0-.198.198v20.902a.197.197 0 0 0 .198.197l13.944.004a.2.2 0 0 0 .197-.197zm155.893-.201q.067.001.115.047c.03.03.047.072.047.115l-.003 6.644q.001.066.047.115.049.046.115.047l14.01.004a.164.164 0 0 0 .163-.162l.003-20.972a.16.16 0 0 0-.047-.115.16.16 0 0 0-.115-.048h-20.965a.16.16 0 0 0-.115.048.16.16 0 0 0-.047.115l-.016 14.003q0 .032.013.062a.16.16 0 0 0 .15.1zm-113.299 78.37a.126.126 0 0 0-.127-.128H85.317a.127.127 0 0 0-.127.128v21.471a.127.127 0 0 0 .127.127h21.484a.126.126 0 0 0 .127-.127zm92.036 21.602a.13.13 0 0 0 .088-.036.13.13 0 0 0 .036-.088V120.96a.13.13 0 0 0-.036-.088.13.13 0 0 0-.088-.036h-21.491a.12.12 0 0 0-.087.036.12.12 0 0 0-.037.088v21.479c0 .032.013.064.037.087a.12.12 0 0 0 .087.036zm-71.18-.286a.15.15 0 0 0-.044-.107.15.15 0 0 0-.107-.044h-14.025a.15.15 0 0 0-.107.044.15.15 0 0 0-.044.107v14.022c0 .04.016.079.044.107a.15.15 0 0 0 .107.044h14.025c.04 0 .079-.016.107-.044a.15.15 0 0 0 .044-.107zm43.037-.012a.14.14 0 0 0-.14-.139h-14.056a.14.14 0 0 0-.139.139v14.046a.14.14 0 0 0 .139.139h14.056a.14.14 0 0 0 .099-.041.14.14 0 0 0 .041-.098z"/><path fill="#6A5C52" d="m64.334 42.795.011 6.574a.197.197 0 0 1-.197.197l-13.944-.004a.197.197 0 0 1-.198-.197V28.463a.2.2 0 0 1 .198-.198l20.914-.003a.197.197 0 0 1 .197.197L71.311 42.4a.197.197 0 0 1-.197.198h-6.583a.197.197 0 0 0-.197.197m155.893-.201-6.645.004a.16.16 0 0 1-.15-.1.2.2 0 0 1-.013-.063l.016-14.003c0-.043.017-.084.047-.115a.16.16 0 0 1 .115-.048h20.965a.164.164 0 0 1 .162.163l-.003 20.972a.164.164 0 0 1-.163.163l-14.01-.005a.16.16 0 0 1-.115-.047.16.16 0 0 1-.047-.115l.003-6.644a.16.16 0 0 0-.047-.115.16.16 0 0 0-.115-.047"/><path fill="#4A402E" d="M106.801 120.836H85.317a.13.13 0 0 0-.127.128v21.471c0 .07.057.127.127.127h21.484c.07 0 .127-.057.127-.127v-21.471a.127.127 0 0 0-.127-.128m92.163 21.73-21.491-.004a.12.12 0 0 1-.087-.036.12.12 0 0 1-.037-.087V120.96q0-.052.037-.088a.12.12 0 0 1 .087-.036h21.491q.051 0 .088.036a.13.13 0 0 1 .036.088v21.482a.13.13 0 0 1-.036.088.13.13 0 0 1-.088.036m-71.331-.437h-14.025a.15.15 0 0 0-.151.151v14.022a.15.15 0 0 0 .151.151h14.025a.15.15 0 0 0 .151-.151V142.28a.15.15 0 0 0-.151-.151m43.048 0h-14.056a.14.14 0 0 0-.139.139v14.046c0 .077.062.139.139.139h14.056a.14.14 0 0 0 .14-.139v-14.046a.14.14 0 0 0-.14-.139"/><path fill="#4A402E" d="m156.513 220.332-7.245-.004q-.186 0-.186.182v6.694q0 .097-.097.097h-14.134a.097.097 0 0 1-.097-.097v-6.67q0-.21-.209-.209l-6.764.007-.035-6.752q-.004-.17-.175-.17l-13.897.004q-.217 0-.217-.221v-6.992q0-.193-.194-.193H99.199q-.123 0-.123-.124V156.6q0-.06.044-.104a.16.16 0 0 1 .106-.043h14.037q.195 0 .194.194v27.874a.194.194 0 0 0 .194.194h13.94q.193 0 .193-.194v-6.581q0-.194.194-.194h28.295q.22 0 .22.221v6.535q0 .213.217.213h13.936q.167 0 .167-.17V156.67q0-.216.221-.217h14.037q.031 0 .054.023a.08.08 0 0 1 .023.055v49.31q0 .167-.167.167H171.08q-.263 0-.263.267l.004 6.988a.147.147 0 0 1-.148.147h-13.936a.225.225 0 0 0-.224.229z"/><path fill="#6A5C52" d="m21.305 199.043 42.467.004q.048 0 .082.033a.1.1 0 0 1 .034.079l-.011 14.228-42.084.019a.5.5 0 0 1-.35-.144.5.5 0 0 1-.146-.347zm241.668-.004-.012 13.938a.427.427 0 0 1-.43.429H220.99a.61.61 0 0 0-.608.604l-.004 5.629.008-20.46a.135.135 0 0 1 .135-.136zm-135.192 21.293 6.764-.007q.21 0 .209.209v6.67a.097.097 0 0 0 .097.097h14.134q.097 0 .097-.097v-6.694q0-.182.186-.182l7.245.004h63.849l-.004 13.945a.43.43 0 0 1-.433.434l-155.468-.004q-.568 0-.565-.569l.112-13.686z"/></svg>
